X: 10
T: The Mason's Apron
R: reel
M: 4/4
L: 1/8
K: Amaj
af |: ec~c2 BFAF | EFAB cBBA | FB~B2 cBBA | cefe ~a3e |
fecB BAAF | EFAB cBBA | Bcde ~f3a |1 fecB BAAf :|2 fecB BA~A2 ||
BAeA fAeA | BAce faef | df ~f2 af ~f2 | bfaf fecB |
BAce fcec | ABce faec | ~d3e ~f3a |1 fecB BA~A2 :|2 fecB BAAf ||


Tune 74	Setting 12550

